assets/icons/PhoneIcon.svg

<svg width="16" height="16" viewBox="0 0 16 16" fill="none" xmlns="http://www.w3.org/2000/svg">
<path d="M12.1644 10.5845C11.6416 10.0685 10.9891 10.0685 10.4697 10.5845C10.0734 10.9774 9.67722 11.3703 9.28767 11.7699C9.18112 11.8797 9.09122 11.903 8.96137 11.8298C8.705 11.69 8.43198 11.5767 8.18559 11.4236C7.0369 10.7011 6.07467 9.77214 5.22231 8.72667C4.79946 8.20726 4.42322 7.65123 4.16019 7.02528C4.10692 6.89876 4.11691 6.81552 4.22012 6.71231C4.61634 6.32941 5.00256 5.93652 5.39212 5.54364C5.93483 4.9976 5.93483 4.35833 5.38879 3.80895C5.07914 3.49598 4.76949 3.18966 4.45985 2.87669C4.14021 2.55705 3.82391 2.23409 3.50094 1.91778C2.97821 1.40836 2.32562 1.40836 1.80621 1.92111C1.40667 2.314 1.02377 2.71687 0.61757 3.10309C0.241333 3.45935 0.0515499 3.89552 0.0115955 4.40494C-0.0516656 5.23399 0.151436 6.01643 0.437775 6.7789C1.02377 8.35709 1.91609 9.75883 2.99818 11.044C4.45985 12.782 6.20452 14.1571 8.24552 15.1493C9.16447 15.5955 10.1167 15.9384 11.1522 15.995C11.8647 16.035 12.484 15.8552 12.9801 15.2992C13.3197 14.9196 13.7026 14.5733 14.0622 14.2104C14.5949 13.671 14.5983 13.0184 14.0689 12.4857C13.4363 11.8498 12.8003 11.2172 12.1644 10.5845Z" fill="#029F59"/>
<path d="M11.5284 7.93088L12.757 7.72112C12.5639 6.59241 12.0312 5.57024 11.2221 4.75784C10.3664 3.90215 9.2843 3.36277 8.09232 3.19629L7.91919 4.43155C8.84147 4.5614 9.68051 4.97759 10.3431 5.64016C10.969 6.26612 11.3786 7.05854 11.5284 7.93088Z" fill="#029F59"/>
<path d="M13.4496 2.59037C12.0312 1.17199 10.2366 0.276351 8.25553 0L8.0824 1.23526C9.79378 1.47498 11.3453 2.25076 12.5706 3.4727C13.7326 4.63471 14.4951 6.10303 14.7714 7.71785L16 7.50809C15.6771 5.63689 14.7947 3.93883 13.4496 2.59037Z" fill="#029F59"/>
</svg>

<svg width="16" height="16" fill="none" xmlns="http://www.w3.org/2000/svg"><path d="M12.164 10.585c-.522-.517-1.175-.517-1.694 0a98.22 98.22 0 0 0-1.182 1.185c-.107.11-.197.133-.327.06-.256-.14-.529-.253-.775-.406-1.15-.723-2.111-1.652-2.964-2.697-.423-.52-.799-1.076-1.062-1.702-.053-.126-.043-.21.06-.313.396-.383.783-.775 1.172-1.168.543-.546.543-1.186-.003-1.735-.31-.313-.62-.62-.93-.932-.319-.32-.635-.643-.958-.96-.523-.509-1.175-.509-1.695.004-.4.393-.782.796-1.188 1.182-.377.356-.566.793-.606 1.302-.064.829.14 1.611.426 2.374.586 1.578 1.478 2.98 2.56 4.265a15.845 15.845 0 0 0 5.248 4.105c.918.447 1.87.79 2.906.846.713.04 1.332-.14 1.828-.696.34-.38.723-.726 1.082-1.089.533-.539.536-1.192.007-1.724-.633-.636-1.269-1.269-1.905-1.902ZM11.528 7.93l1.229-.209a5.49 5.49 0 0 0-1.535-2.963 5.462 5.462 0 0 0-3.13-1.562L7.92 4.432c.922.13 1.762.546 2.424 1.208a4.237 4.237 0 0 1 1.185 2.29ZM13.45 2.59A9.06 9.06 0 0 0 8.256 0l-.174 1.235a7.855 7.855 0 0 1 4.489 2.238 7.849 7.849 0 0 1 2.2 4.245L16 7.508a9.125 9.125 0 0 0-2.55-4.918Z" fill="#029F59"/></svg>
